flaticon/medical/braces-1.svg

<svg xmlns="http://www.w3.org/2000/svg" width="32" height="32" viewBox="0 0 24 24">
    <path d="M 20.765625 20.191406 C 22.707031 18.117188 23.835938 15.46875 23.984375 12.636719 C 23.984375 12.628906 23.984375 12.625 23.984375 12.617188 C 23.996094 12.410156 24 12.207031 24 12 C 24 11.742188 23.988281 11.484375 23.972656 11.230469 C 23.96875 11.1875 23.964844 11.148438 23.964844 11.109375 C 23.945312 10.859375 23.917969 10.613281 23.886719 10.371094 C 23.886719 10.363281 23.886719 10.355469 23.882812 10.34375 L 23.875 10.292969 C 23.871094 10.242188 23.863281 10.195312 23.855469 10.144531 L 23.835938 10 L 23.828125 10 C 22.875 4.332031 17.9375 0 12 0 C 6.75 0 2.277344 3.390625 0.65625 8.097656 L 0.644531 8.09375 L 0.539062 8.433594 C 0.527344 8.476562 0.515625 8.519531 0.503906 8.5625 C 0.445312 8.765625 0.390625 8.96875 0.339844 9.175781 C 0.320312 9.257812 0.300781 9.339844 0.28125 9.425781 C 0.226562 9.671875 0.175781 9.921875 0.136719 10.175781 C 0.132812 10.203125 0.132812 10.230469 0.128906 10.253906 C 0.09375 10.496094 0.0664062 10.738281 0.046875 10.984375 C 0.0390625 11.054688 0.0351562 11.125 0.03125 11.195312 C 0.0117188 11.460938 0 11.730469 0 12 C 0 15.019531 1.101562 17.847656 3.113281 20.054688 C 3.121094 20.0625 3.125 20.066406 3.128906 20.074219 C 3.246094 20.203125 3.367188 20.328125 3.492188 20.453125 C 3.507812 20.46875 3.523438 20.484375 3.539062 20.5 L 3.535156 20.503906 L 3.703125 20.664062 C 3.726562 20.683594 3.746094 20.707031 3.769531 20.726562 L 4.128906 21.070312 L 4.136719 21.058594 C 4.191406 21.105469 4.25 21.152344 4.304688 21.199219 C 4.359375 21.246094 4.414062 21.289062 4.46875 21.335938 C 4.566406 21.414062 4.664062 21.492188 4.765625 21.566406 C 4.8125 21.601562 4.863281 21.640625 4.910156 21.675781 C 5.019531 21.753906 5.128906 21.832031 5.238281 21.910156 C 5.28125 21.9375 5.328125 21.96875 5.371094 21.996094 C 5.488281 22.074219 5.605469 22.152344 5.726562 22.226562 C 5.769531 22.25 5.808594 22.277344 5.851562 22.300781 C 5.976562 22.375 6.101562 22.445312 6.226562 22.515625 C 6.269531 22.539062 6.308594 22.5625 6.351562 22.585938 C 6.480469 22.652344 6.605469 22.71875 6.734375 22.78125 C 6.78125 22.804688 6.824219 22.824219 6.871094 22.847656 C 6.996094 22.90625 7.125 22.964844 7.253906 23.019531 C 7.304688 23.042969 7.355469 23.0625 7.40625 23.085938 C 7.53125 23.136719 7.65625 23.183594 7.78125 23.234375 C 7.839844 23.253906 7.894531 23.277344 7.953125 23.296875 C 8.074219 23.339844 8.195312 23.378906 8.316406 23.421875 C 8.382812 23.441406 8.445312 23.460938 8.511719 23.480469 C 8.628906 23.515625 8.746094 23.550781 8.863281 23.582031 C 8.933594 23.601562 9.007812 23.621094 9.078125 23.640625 C 9.191406 23.667969 9.304688 23.691406 9.417969 23.71875 C 9.496094 23.734375 9.574219 23.753906 9.652344 23.769531 C 9.761719 23.789062 9.875 23.808594 9.988281 23.828125 C 10.070312 23.84375 10.148438 23.855469 10.230469 23.871094 C 10.34375 23.886719 10.457031 23.898438 10.574219 23.914062 C 10.652344 23.921875 10.734375 23.933594 10.816406 23.941406 C 10.941406 23.953125 11.070312 23.960938 11.195312 23.972656 C 11.265625 23.976562 11.335938 23.980469 11.402344 23.984375 C 11.601562 23.996094 11.800781 24 12 24 C 12.203125 24 12.40625 23.996094 12.605469 23.984375 C 12.660156 23.980469 12.710938 23.976562 12.765625 23.972656 C 12.914062 23.964844 13.058594 23.953125 13.207031 23.941406 C 13.261719 23.933594 13.3125 23.925781 13.363281 23.921875 C 13.511719 23.902344 13.660156 23.886719 13.808594 23.863281 C 13.847656 23.859375 13.886719 23.847656 13.929688 23.84375 C 14.085938 23.816406 14.246094 23.789062 14.402344 23.757812 C 14.429688 23.753906 14.457031 23.746094 14.484375 23.738281 C 14.652344 23.703125 14.820312 23.667969 14.988281 23.625 C 15 23.621094 15.015625 23.617188 15.027344 23.613281 C 15.207031 23.566406 15.386719 23.515625 15.5625 23.460938 C 15.566406 23.460938 15.566406 23.457031 15.566406 23.457031 C 16.492188 23.171875 17.378906 22.769531 18.210938 22.261719 C 18.21875 22.257812 18.226562 22.253906 18.234375 22.25 C 18.386719 22.15625 18.539062 22.058594 18.6875 21.957031 C 18.710938 21.941406 18.738281 21.921875 18.761719 21.90625 C 18.890625 21.816406 19.019531 21.726562 19.144531 21.636719 C 19.191406 21.597656 19.242188 21.558594 19.289062 21.523438 C 19.386719 21.445312 19.488281 21.371094 19.585938 21.289062 C 19.660156 21.230469 19.730469 21.167969 19.800781 21.105469 C 19.871094 21.046875 19.945312 20.984375 20.015625 20.921875 C 20.070312 20.871094 20.125 20.820312 20.179688 20.769531 L 20.1875 20.773438 L 20.410156 20.554688 C 20.453125 20.515625 20.492188 20.472656 20.53125 20.429688 L 20.769531 20.195312 Z M 16.355469 22.316406 C 16.355469 22.320312 16.355469 22.320312 16.355469 22.320312 C 16.191406 22.386719 16.027344 22.453125 15.863281 22.511719 C 15.847656 22.519531 15.835938 22.523438 15.820312 22.527344 C 15.671875 22.582031 15.515625 22.636719 15.363281 22.683594 C 15.335938 22.691406 15.308594 22.699219 15.28125 22.707031 C 15.140625 22.753906 15 22.792969 14.855469 22.832031 C 14.816406 22.839844 14.777344 22.851562 14.742188 22.859375 C 14.609375 22.894531 14.472656 22.925781 14.339844 22.953125 C 14.292969 22.960938 14.246094 22.972656 14.195312 22.984375 C 14.070312 23.007812 13.945312 23.03125 13.816406 23.050781 C 13.761719 23.058594 13.707031 23.070312 13.648438 23.078125 C 13.527344 23.097656 13.402344 23.109375 13.277344 23.125 C 13.21875 23.132812 13.160156 23.140625 13.101562 23.144531 C 12.972656 23.15625 12.84375 23.167969 12.714844 23.175781 C 12.660156 23.179688 12.605469 23.183594 12.550781 23.1875 C 12.371094 23.195312 12.183594 23.199219 12 23.199219 C 11.816406 23.199219 11.632812 23.195312 11.453125 23.1875 C 11.390625 23.183594 11.328125 23.175781 11.265625 23.171875 C 11.148438 23.164062 11.027344 23.15625 10.910156 23.144531 C 10.835938 23.140625 10.765625 23.128906 10.691406 23.121094 C 10.585938 23.109375 10.480469 23.09375 10.375 23.082031 C 10.296875 23.070312 10.222656 23.054688 10.148438 23.042969 C 10.046875 23.027344 9.941406 23.007812 9.839844 22.988281 C 9.769531 22.976562 9.695312 22.960938 9.621094 22.941406 C 9.519531 22.921875 9.414062 22.898438 9.3125 22.871094 C 9.242188 22.855469 9.175781 22.835938 9.105469 22.820312 C 9 22.789062 8.890625 22.757812 8.785156 22.726562 C 8.722656 22.710938 8.664062 22.691406 8.601562 22.671875 C 8.488281 22.632812 8.371094 22.59375 8.257812 22.554688 C 8.207031 22.535156 8.15625 22.519531 8.105469 22.5 C 7.976562 22.453125 7.855469 22.402344 7.730469 22.351562 C 7.691406 22.335938 7.65625 22.320312 7.617188 22.304688 C 7.476562 22.246094 7.335938 22.179688 7.195312 22.113281 C 7.175781 22.105469 7.15625 22.097656 7.140625 22.089844 C 6.492188 21.777344 5.878906 21.402344 5.308594 20.976562 C 5.289062 20.960938 5.269531 20.945312 5.246094 20.929688 C 5.128906 20.839844 5.015625 20.75 4.902344 20.65625 C 4.851562 20.617188 4.804688 20.574219 4.757812 20.535156 C 4.6875 20.472656 4.613281 20.410156 4.542969 20.347656 C 4.550781 20.332031 4.554688 20.316406 4.5625 20.300781 C 4.632812 20.144531 4.695312 19.984375 4.746094 19.8125 C 4.8125 19.578125 4.878906 19.335938 4.945312 19.085938 C 4.964844 19.003906 4.988281 18.921875 5.007812 18.839844 C 5.0625 18.621094 5.121094 18.394531 5.171875 18.167969 C 5.199219 18.054688 5.222656 17.941406 5.25 17.828125 C 5.265625 17.75 5.285156 17.675781 5.300781 17.601562 L 6.949219 17.601562 C 6.96875 17.675781 6.988281 17.75 7.007812 17.824219 C 7.046875 17.980469 7.085938 18.125 7.128906 18.257812 C 7.183594 18.433594 7.238281 18.597656 7.292969 18.753906 C 8.121094 21.082031 9.171875 21.199219 12 21.199219 C 13.742188 21.199219 15.820312 20.914062 16.441406 18.695312 C 16.5 18.476562 16.5625 18.242188 16.625 18.003906 C 16.65625 17.875 16.691406 17.742188 16.722656 17.613281 C 16.722656 17.609375 16.726562 17.605469 16.726562 17.601562 L 18.203125 17.601562 C 18.21875 17.660156 18.238281 17.710938 18.253906 17.769531 C 18.296875 17.925781 18.339844 18.074219 18.386719 18.210938 C 18.449219 18.40625 18.515625 18.589844 18.585938 18.769531 C 18.601562 18.808594 18.617188 18.847656 18.628906 18.882812 C 18.699219 19.054688 18.773438 19.21875 18.851562 19.371094 C 18.863281 19.398438 18.878906 19.425781 18.894531 19.453125 C 18.96875 19.589844 19.046875 19.722656 19.128906 19.84375 C 19.144531 19.863281 19.15625 19.886719 19.171875 19.90625 C 19.265625 20.035156 19.367188 20.152344 19.480469 20.257812 C 19.492188 20.273438 19.5 20.289062 19.511719 20.296875 C 19.386719 20.414062 19.257812 20.523438 19.125 20.632812 C 18.296875 21.320312 17.363281 21.890625 16.355469 22.316406 Z M 0.820312 12.644531 C 0.820312 12.617188 0.816406 12.59375 0.8125 12.566406 C 0.804688 12.378906 0.800781 12.191406 0.800781 12 C 0.800781 11.773438 0.808594 11.542969 0.824219 11.316406 C 0.828125 11.246094 0.832031 11.179688 0.839844 11.109375 C 0.851562 10.945312 0.867188 10.785156 0.886719 10.625 C 0.898438 10.550781 0.90625 10.476562 0.914062 10.402344 C 0.941406 10.214844 0.972656 10.027344 1.011719 9.84375 C 1.023438 9.773438 1.039062 9.707031 1.054688 9.636719 C 1.089844 9.464844 1.132812 9.292969 1.175781 9.125 C 1.1875 9.085938 1.195312 9.050781 1.207031 9.015625 C 1.746094 9.128906 2.316406 9.292969 2.90625 9.496094 C 4.121094 9.917969 5.300781 11.117188 5.191406 12.851562 C 5.15625 13.445312 5.082031 14.109375 4.988281 14.800781 L 1.15625 14.800781 C 1.015625 14.269531 0.917969 13.71875 0.859375 13.160156 C 0.859375 13.152344 0.859375 13.148438 0.859375 13.140625 C 0.839844 12.976562 0.828125 12.8125 0.820312 12.644531 Z M 1.398438 15.601562 L 4.863281 15.601562 C 4.742188 16.347656 4.59375 17.113281 4.421875 17.859375 C 4.410156 17.914062 4.398438 17.964844 4.386719 18.015625 C 4.335938 18.226562 4.285156 18.429688 4.234375 18.636719 C 4.214844 18.707031 4.195312 18.78125 4.175781 18.855469 C 4.113281 19.105469 4.046875 19.351562 3.976562 19.589844 C 3.960938 19.644531 3.941406 19.695312 3.921875 19.746094 C 3.851562 19.675781 3.78125 19.605469 3.71875 19.53125 C 3.714844 19.527344 3.710938 19.527344 3.710938 19.523438 C 2.691406 18.398438 1.894531 17.066406 1.398438 15.601562 Z M 7.199219 12.019531 C 7.1875 10.503906 9.9375 7.917969 11.511719 7.628906 C 11.613281 7.609375 11.707031 7.601562 11.792969 7.601562 C 11.84375 7.601562 11.890625 7.605469 11.933594 7.609375 C 13.417969 7.863281 16.851562 10.5625 16.800781 12.007812 C 16.769531 12.816406 16.660156 13.777344 16.492188 14.800781 L 14.800781 14.800781 L 14.800781 13.199219 L 12.398438 13.199219 L 12.398438 14.800781 L 11.601562 14.800781 L 11.601562 13.199219 L 9.199219 13.199219 L 9.199219 14.800781 L 7.320312 14.800781 C 7.230469 13.789062 7.207031 12.8125 7.199219 12.019531 Z M 14 14 L 14 16.398438 L 13.199219 16.398438 L 13.199219 14 Z M 10.800781 14 L 10.800781 16.398438 L 10 16.398438 L 10 14 Z M 9.199219 15.601562 L 9.199219 17.199219 L 11.601562 17.199219 L 11.601562 15.601562 L 12.398438 15.601562 L 12.398438 17.199219 L 14.800781 17.199219 L 14.800781 15.601562 L 16.347656 15.601562 C 16.269531 15.996094 16.1875 16.394531 16.09375 16.800781 L 16.070312 16.90625 C 16.050781 16.992188 16.027344 17.078125 16.007812 17.164062 C 15.957031 17.375 15.90625 17.574219 15.859375 17.769531 C 15.796875 18.007812 15.734375 18.246094 15.671875 18.480469 C 15.292969 19.824219 14.195312 20.398438 12 20.398438 C 9.15625 20.398438 8.597656 20.328125 7.894531 18.023438 C 7.832031 17.824219 7.78125 17.617188 7.730469 17.410156 C 7.707031 17.316406 7.683594 17.21875 7.660156 17.113281 L 7.648438 17.046875 C 7.546875 16.574219 7.464844 16.089844 7.40625 15.601562 Z M 18.398438 11.964844 C 18.390625 11.113281 19.570312 10.988281 21.367188 10.890625 C 21.617188 10.878906 21.867188 10.863281 22.113281 10.847656 C 22.441406 10.824219 22.785156 10.808594 23.132812 10.804688 C 23.179688 11.207031 23.199219 11.609375 23.199219 12 C 23.199219 12.1875 23.195312 12.378906 23.1875 12.5625 C 23.183594 12.601562 23.179688 12.640625 23.175781 12.679688 C 23.167969 12.832031 23.15625 12.980469 23.144531 13.128906 C 23.140625 13.160156 23.136719 13.1875 23.132812 13.214844 C 23.113281 13.375 23.09375 13.539062 23.070312 13.695312 C 23.070312 13.707031 23.066406 13.71875 23.066406 13.730469 C 23.007812 14.09375 22.9375 14.449219 22.84375 14.800781 L 18.539062 14.800781 C 18.457031 13.949219 18.410156 13.011719 18.398438 11.964844 Z M 22.601562 15.601562 C 22.070312 17.160156 21.203125 18.570312 20.085938 19.734375 C 20.070312 19.71875 20.050781 19.703125 20.03125 19.683594 C 20.011719 19.667969 19.996094 19.648438 19.980469 19.632812 C 19.941406 19.589844 19.90625 19.546875 19.867188 19.5 C 19.859375 19.488281 19.847656 19.476562 19.835938 19.460938 C 19.789062 19.398438 19.746094 19.332031 19.703125 19.261719 C 19.691406 19.242188 19.675781 19.21875 19.664062 19.195312 C 19.632812 19.140625 19.601562 19.085938 19.574219 19.027344 C 19.558594 18.996094 19.539062 18.964844 19.523438 18.929688 C 19.496094 18.875 19.472656 18.816406 19.445312 18.753906 C 19.429688 18.71875 19.414062 18.679688 19.394531 18.644531 C 19.367188 18.574219 19.339844 18.503906 19.3125 18.429688 C 19.296875 18.394531 19.285156 18.359375 19.269531 18.320312 C 19.230469 18.207031 19.1875 18.089844 19.144531 17.960938 C 19.097656 17.816406 19.054688 17.660156 19.007812 17.503906 C 18.980469 17.390625 18.949219 17.273438 18.917969 17.140625 C 18.804688 16.671875 18.707031 16.160156 18.632812 15.601562 Z M 18.019531 16.800781 L 16.914062 16.800781 C 17.003906 16.394531 17.085938 15.996094 17.160156 15.601562 L 17.820312 15.601562 C 17.875 16.023438 17.941406 16.421875 18.019531 16.800781 Z M 6.78125 16.800781 L 5.464844 16.800781 C 5.542969 16.398438 5.613281 15.996094 5.675781 15.601562 L 6.597656 15.601562 C 6.648438 16.027344 6.710938 16.421875 6.78125 16.800781 Z M 12 0.800781 C 17.496094 0.800781 22.078125 4.78125 23.019531 10.007812 C 22.691406 10.015625 22.367188 10.027344 22.054688 10.050781 C 21.816406 10.066406 21.570312 10.078125 21.324219 10.09375 C 19.570312 10.1875 17.585938 10.292969 17.601562 11.972656 C 17.609375 13.019531 17.652344 13.953125 17.730469 14.800781 L 17.300781 14.800781 C 17.464844 13.789062 17.570312 12.84375 17.597656 12.035156 C 17.671875 10.011719 13.761719 7.113281 12.066406 6.820312 C 11.863281 6.789062 11.625 6.792969 11.367188 6.84375 C 9.4375 7.199219 6.382812 10.089844 6.402344 12.027344 C 6.410156 13.050781 6.449219 13.96875 6.519531 14.800781 L 5.796875 14.800781 C 5.886719 14.132812 5.957031 13.488281 5.992188 12.898438 C 6.125 10.75 4.667969 9.261719 3.167969 8.742188 C 2.574219 8.535156 2 8.371094 1.449219 8.25 C 2.992188 3.914062 7.140625 0.800781 12 0.800781 Z M 12 0.800781"/>
</svg>

<svg xmlns="http://www.w3.org/2000/svg" width="32" height="32" viewBox="0 0 24 24">
    <path d="M20.766 20.191a11.913 11.913 0 0 0 3.218-7.554v-.02a10.847 10.847 0 0 0-.011-1.387c-.004-.043-.008-.082-.008-.12-.02-.25-.047-.497-.078-.739 0-.008 0-.016-.004-.027l-.008-.051c-.004-.05-.012-.098-.02-.148l-.02-.145h-.007C22.875 4.332 17.938 0 12 0 6.75 0 2.277 3.39.656 8.098l-.011-.004-.106.34-.035.129a15.701 15.701 0 0 0-.223.863c-.054.246-.105.496-.144.75-.004.027-.004.054-.008.078a11.286 11.286 0 0 0-.098.941 11.865 11.865 0 0 0 3.46 9.258l.048.047-.004.004.168.16c.024.02.043.043.067.063l.359.343.008-.011.168.14c.054.047.11.09.164.137.097.078.195.156.297.23l.144.11.328.234.133.086c.117.078.234.156.356.23.043.024.082.051.125.075.125.074.25.144.375.215l.125.07c.128.066.253.133.382.195l.137.067c.125.058.254.117.383.172.05.023.101.043.152.066l.375.148c.059.02.114.043.172.063.121.043.242.082.363.125l.196.058c.117.036.234.07.351.102l.215.059c.113.027.227.05.34.078.078.015.156.035.234.05l.336.06c.082.015.16.026.242.042.114.016.227.027.344.043.078.008.16.02.242.027.125.012.254.02.38.032l.206.011c.2.012.399.016.598.016.203 0 .406-.004.605-.016l.16-.011c.15-.008.294-.02.442-.032.055-.007.105-.015.156-.02.149-.019.297-.034.446-.058.039-.004.078-.015.12-.02.157-.027.317-.054.473-.085a.624.624 0 0 0 .082-.02c.168-.035.336-.07.504-.113l.04-.012c.179-.047.359-.097.534-.152.004 0 .004-.004.004-.004a11.67 11.67 0 0 0 2.668-1.207c.153-.094.305-.191.453-.293l.075-.05c.129-.09.258-.18.383-.27.046-.04.097-.078.144-.114.098-.078.2-.152.297-.234.074-.059.144-.121.215-.184.07-.058.144-.12.215-.183l.164-.152.008.003.222-.218c.043-.04.082-.082.121-.125l.239-.235zm-4.41 2.125v.004a12.768 12.768 0 0 1-.993.364l-.082.023c-.14.047-.281.086-.426.125-.039.008-.078.02-.113.027-.133.036-.27.067-.402.094-.047.008-.094.02-.145.031-.125.024-.25.047-.379.067-.054.008-.109.02-.168.027-.12.02-.246.031-.37.047-.06.008-.118.016-.176.02a12.885 12.885 0 0 1-.551.043 12.818 12.818 0 0 1-1.098 0c-.062-.004-.125-.012-.187-.016-.118-.008-.239-.016-.356-.027-.074-.004-.144-.016-.219-.024-.105-.012-.21-.027-.316-.039-.078-.012-.152-.027-.227-.039a8.513 8.513 0 0 1-.527-.102 4.385 4.385 0 0 1-.309-.07c-.07-.016-.136-.035-.207-.05-.105-.032-.214-.063-.32-.094-.062-.016-.12-.036-.183-.055-.114-.04-.23-.078-.344-.117-.051-.02-.102-.035-.153-.055-.128-.047-.25-.098-.375-.148-.039-.016-.074-.032-.113-.047-.14-.059-.281-.125-.422-.192a.766.766 0 0 1-.054-.023 11.177 11.177 0 0 1-1.832-1.113 11.717 11.717 0 0 1-.406-.32c-.051-.04-.098-.083-.145-.122l-.215-.187c.008-.016.012-.032.02-.047.07-.156.132-.317.183-.488.066-.235.133-.477.2-.727.019-.082.042-.164.062-.246.054-.219.113-.445.164-.672.027-.113.05-.227.078-.34.016-.078.035-.152.05-.226h1.65l.058.222c.039.156.078.301.12.434.056.176.11.34.165.496.828 2.328 1.879 2.445 4.707 2.445 1.742 0 3.82-.285 4.441-2.504.059-.218.122-.453.184-.691.031-.129.066-.262.098-.39 0-.005.004-.009.004-.012h1.476c.016.058.035.109.05.168.044.156.087.304.134.44a9.3 9.3 0 0 0 .199.56 6.311 6.311 0 0 0 .266.602 4.695 4.695 0 0 0 .277.473c.016.018.027.042.043.061.094.13.195.246.308.352.012.015.02.031.032.039a11.106 11.106 0 0 1-3.156 2.02zM.82 12.645c0-.028-.004-.051-.007-.079A13.559 13.559 0 0 1 .8 12a9.99 9.99 0 0 1 .039-.89c.012-.165.027-.325.047-.485.011-.074.02-.148.027-.223.027-.187.059-.375.098-.558.011-.07.027-.137.043-.207.035-.172.078-.344.12-.512.012-.04.02-.074.032-.11.54.114 1.11.278 1.7.481 1.214.422 2.394 1.621 2.284 3.356-.035.593-.109 1.257-.203 1.949H1.156a10.842 10.842 0 0 1-.297-1.64v-.02a6.887 6.887 0 0 1-.039-.496zm.578 2.957h3.465a35.407 35.407 0 0 1-.476 2.414l-.153.62c-.02.071-.039.145-.058.22-.063.25-.13.496-.2.734-.015.055-.035.105-.054.156-.07-.07-.14-.14-.203-.215-.004-.004-.008-.004-.008-.008a11.199 11.199 0 0 1-2.313-3.921zM7.2 12.02c-.011-1.516 2.739-4.102 4.313-4.391a1.485 1.485 0 0 1 .422-.02c1.484.254 4.918 2.954 4.867 4.399-.031.808-.14 1.77-.309 2.793h-1.691v-1.602h-2.403v1.602h-.796v-1.602H9.199v1.602H7.32a35.549 35.549 0 0 1-.12-2.781zM14 14v2.398h-.8V14zm-3.2 0v2.398H10V14zm-1.6 1.602v1.597h2.402v-1.597h.796v1.597h2.403v-1.597h1.547c-.078.394-.16.793-.254 1.199l-.024.105c-.02.086-.043.172-.062.258-.051.211-.102.41-.149.606l-.187.71c-.379 1.344-1.477 1.918-3.672 1.918-2.844 0-3.402-.07-4.105-2.375-.063-.199-.114-.406-.165-.613a11.479 11.479 0 0 1-.07-.297l-.012-.066a15.93 15.93 0 0 1-.242-1.445zm9.198-3.637c-.007-.852 1.172-.977 2.97-1.074.25-.012.5-.028.745-.043.328-.024.672-.04 1.02-.043.047.402.066.804.066 1.195 0 .188-.004.379-.012.563l-.011.117c-.008.152-.02.3-.031.449a4.737 4.737 0 0 1-.012.086c-.02.16-.04.324-.063.48 0 .012-.004.024-.004.035a10.83 10.83 0 0 1-.222 1.07h-4.305a33.564 33.564 0 0 1-.14-2.835zm4.204 3.637a11.19 11.19 0 0 1-2.516 4.132c-.016-.015-.035-.03-.055-.05-.02-.016-.035-.036-.05-.051-.04-.043-.075-.086-.114-.133-.008-.012-.02-.023-.031-.04a2.52 2.52 0 0 1-.133-.198c-.012-.02-.027-.043-.039-.067-.031-.054-.062-.11-.09-.168-.015-.03-.035-.062-.05-.097-.028-.055-.051-.114-.079-.176-.015-.035-.03-.074-.05-.11-.028-.07-.055-.14-.082-.214-.016-.035-.028-.07-.043-.11-.04-.113-.082-.23-.125-.36-.047-.144-.09-.3-.137-.456-.028-.113-.059-.23-.09-.363-.113-.47-.211-.98-.285-1.54zM18.02 16.8h-1.106c.09-.406.172-.805.246-1.2h.66c.055.422.121.82.2 1.2zm-11.239 0H5.465c.078-.403.148-.805.21-1.2h.923c.05.426.113.82.183 1.2zM12 .8c5.496 0 10.078 3.98 11.02 9.207-.329.008-.653.02-.965.043-.239.015-.485.027-.73.043-1.755.094-3.74.199-3.723 1.879.007 1.047.05 1.98.128 2.828h-.43c.165-1.012.27-1.957.298-2.766.074-2.023-3.836-4.922-5.532-5.215a2.043 2.043 0 0 0-.699.024c-1.93.355-4.984 3.246-4.965 5.183a36.34 36.34 0 0 0 .118 2.774h-.723c.09-.668.16-1.313.195-1.903.133-2.148-1.324-3.636-2.824-4.156a15.053 15.053 0 0 0-1.719-.492C2.992 3.914 7.141.8 12 .8zm0 0"/>
</svg>
